img/icon/Icon_1.svg

<svg width="81" height="79" viewBox="0 0 81 79" fill="none" xmlns="http://www.w3.org/2000/svg">
<g id="Layer 2">
<g id="Layer 1">
<path id="investment" d="M80.4773 64.224C80.4764 63.2724 80.0933 62.3601 79.412 61.6872C78.7308 61.0143 77.807 60.6359 76.8436 60.635C76.0007 60.7714 60.9062 60.2852 60.7008 61.0163C61.3454 60.0578 61.0089 57.3433 61.0904 56.2449C61.0885 55.2927 60.7047 54.38 60.023 53.7066C59.3413 53.0333 58.4172 52.6542 57.4531 52.6524C57.1733 52.7188 41.2926 52.4565 41.6999 52.8762V47.0694H50.1751C53.0666 47.0657 55.8386 45.9293 57.883 43.9095C59.9273 41.8897 61.077 39.1514 61.0798 36.2954C61.0798 35.9787 60.9526 35.6749 60.7263 35.4507C60.4999 35.2264 60.1927 35.1 59.8721 35.099H50.1751C48.5493 35.0995 46.9442 35.4595 45.4777 36.1526C44.0111 36.8456 42.7203 37.8542 41.6999 39.1043V31.0588C45.759 30.7494 49.5391 28.8993 52.2469 25.8966C54.9548 22.8939 56.3798 18.9719 56.2231 14.9538C56.0664 10.9357 54.3401 7.13366 51.4065 4.34556C48.4728 1.55746 44.5599 0 40.4887 0C36.4175 0 32.5045 1.55746 29.5708 4.34556C26.6372 7.13366 24.9109 10.9357 24.7542 14.9538C24.5975 18.9719 26.0226 22.8939 28.7304 25.8966C31.4382 28.8993 35.2183 30.7494 39.2774 31.0588V47.1079C38.256 45.8518 36.9618 44.8385 35.4906 44.1428C34.0193 43.4471 32.4086 43.0869 30.7775 43.0886H21.0982C20.7769 43.0886 20.4689 43.2147 20.2417 43.439C20.0146 43.6634 19.8869 43.9677 19.8869 44.285C19.8907 47.1404 21.0408 49.8778 23.085 51.8968C25.1292 53.9159 27.9007 55.0518 30.7917 55.0555H39.2916V60.8588C39.8158 60.4356 23.7367 60.7119 23.5384 60.6385C22.5749 60.6394 21.6512 61.0178 20.97 61.6907C20.2887 62.3636 19.9056 63.2759 19.9046 64.2275C19.9932 65.3329 19.6461 68.0299 20.2907 68.9988C20.1384 68.2538 4.93413 68.7505 4.14789 68.6176C3.66994 68.6162 3.1964 68.7079 2.75434 68.8873C2.31228 69.0668 1.91037 69.3306 1.57159 69.6636C1.2328 69.9966 0.963787 70.3923 0.779917 70.828C0.596047 71.2637 0.500929 71.731 0.5 72.2031L0.5 75.3968C0.501872 76.3481 0.885311 77.2599 1.56636 77.9326C2.24741 78.6053 3.17058 78.984 4.13372 78.9858H18.6757C19.5728 78.9837 20.4368 78.6506 21.0982 78.0519C21.7617 78.6494 22.6263 78.9822 23.5242 78.9858H38.0662C38.9632 78.983 39.8269 78.65 40.4887 78.0519C41.1508 78.6494 42.0143 78.9823 42.9111 78.9858H57.4531C58.3501 78.983 59.2139 78.65 59.8756 78.0519C60.5392 78.6494 61.4037 78.9822 62.3016 78.9858H76.8436C77.8068 78.984 78.7299 78.6053 79.411 77.9326C80.092 77.2599 80.4755 76.3481 80.4773 75.3968C80.3923 73.8332 80.8811 70.9788 79.5317 69.7999C80.8705 68.6455 80.4065 65.7876 80.4773 64.224ZM50.1751 37.4952H58.5829C58.2881 39.4881 57.2778 41.3098 55.7363 42.6282C54.1947 43.9465 52.2248 44.6736 50.1857 44.6768H41.7778C42.0726 42.6839 43.083 40.8622 44.6245 39.5438C46.166 38.2255 48.136 37.4984 50.1751 37.4952ZM30.7917 52.6559C28.7521 52.6516 26.7821 51.9232 25.2412 50.6035C23.7003 49.2838 22.6911 47.4608 22.398 45.4673H30.7917C32.8307 45.4705 34.8007 46.1976 36.3422 47.5159C37.8838 48.8343 38.8941 50.656 39.1889 52.6489L30.7917 52.6559ZM19.8905 75.3933C19.8895 75.7109 19.7611 76.0152 19.5334 76.2395C19.3057 76.4637 18.9973 76.5897 18.6757 76.5897H4.13372C2.28145 76.5652 3.07123 73.7667 2.92602 72.1996C2.92602 71.8829 3.05315 71.5791 3.27954 71.3549C3.50592 71.1306 3.8131 71.0042 4.13372 71.0032H18.6757C20.5315 71.0312 19.7276 73.8297 19.8905 75.3933ZM39.2774 75.3933C39.2765 75.7103 39.1486 76.0141 38.9216 76.2382C38.6947 76.4624 38.3871 76.5887 38.0662 76.5897H23.5207C21.6648 76.5652 22.4582 73.7702 22.3094 72.1996C22.3104 71.8826 22.4383 71.5788 22.6652 71.3547C22.8922 71.1305 23.1997 71.0042 23.5207 71.0032H38.0626C39.9185 71.0312 39.1039 73.8297 39.2774 75.3933ZM39.2774 67.4142C39.2765 67.7312 39.1486 68.035 38.9216 68.2591C38.6947 68.4833 38.3871 68.6096 38.0662 68.6106H23.5207C21.6648 68.5861 22.4582 65.7841 22.3094 64.2205C22.3113 63.9041 22.4396 63.6012 22.6665 63.3778C22.8933 63.1544 23.2003 63.0286 23.5207 63.0276H38.0626C39.9185 63.0521 39.1039 65.8506 39.2774 67.4142ZM27.1579 15.5518C27.1579 12.0598 28.5624 8.71077 31.0624 6.24153C33.5624 3.77228 36.9531 2.38508 40.4887 2.38508C44.0242 2.38508 47.4149 3.77228 49.9149 6.24153C52.4149 8.71077 53.8194 12.0598 53.8194 15.5518C53.8194 19.0439 52.4149 22.3929 49.9149 24.8621C47.4149 27.3314 44.0242 28.7186 40.4887 28.7186C36.9531 28.7186 33.5624 27.3314 31.0624 24.8621C28.5624 22.3929 27.1579 19.0439 27.1579 15.5518ZM58.6785 75.3968C58.6776 75.7144 58.5492 76.0187 58.3215 76.243C58.0938 76.4672 57.7853 76.5932 57.4637 76.5932H42.9111C41.0589 76.5687 41.8664 73.7702 41.6999 72.2031C41.7008 71.8861 41.8288 71.5823 42.0557 71.3582C42.2827 71.134 42.5902 71.0077 42.9111 71.0067H57.4531C59.3089 71.0312 58.5014 73.8332 58.6679 75.3968H58.6785ZM58.6785 67.4177C58.6776 67.7353 58.5492 68.0396 58.3215 68.2639C58.0938 68.4881 57.7853 68.6141 57.4637 68.6141H42.9111C41.0589 68.5896 41.8664 65.7876 41.6999 64.224C41.7008 63.907 41.8288 63.6032 42.0557 63.3791C42.2827 63.1549 42.5902 63.0286 42.9111 63.0276H57.4531C59.3089 63.0521 58.5014 65.8541 58.6679 67.4177H58.6785ZM58.6785 59.4386C58.6776 59.7562 58.5492 60.0605 58.3215 60.2848C58.0938 60.509 57.7853 60.635 57.4637 60.635H42.9111C41.0589 60.6105 41.8664 57.8085 41.6999 56.2449C41.6999 55.9276 41.8275 55.6233 42.0547 55.3989C42.2818 55.1746 42.5899 55.0485 42.9111 55.0485H57.4531C59.3089 55.073 58.5014 57.8715 58.6679 59.4386H58.6785ZM78.0619 75.3968C78.061 75.7138 77.9331 76.0176 77.7061 76.2417C77.4792 76.4659 77.1716 76.5922 76.8507 76.5932H62.3016C60.4458 76.5687 61.2391 73.7737 61.0904 72.2031C61.0904 71.8858 61.218 71.5815 61.4452 71.3571C61.6723 71.1328 61.9804 71.0067 62.3016 71.0067H76.8436C78.6959 71.0312 77.8919 73.8367 78.0619 75.3968ZM78.0619 67.4177C78.061 67.7347 77.9331 68.0385 77.7061 68.2626C77.4792 68.4868 77.1716 68.6131 76.8507 68.6141H62.3016C60.4458 68.5896 61.2391 65.7876 61.0904 64.224C61.0904 63.9067 61.218 63.6024 61.4452 63.378C61.6723 63.1537 61.9804 63.0276 62.3016 63.0276H76.8436C78.6959 63.0521 77.8919 65.8541 78.0619 67.4177ZM45.5426 18.9939C45.5118 20.0623 45.1144 21.0886 44.4155 21.9047C43.7167 22.7208 42.7579 23.2781 41.6964 23.4854C41.7814 24.3705 41.6291 25.5213 40.4816 25.5248C39.3341 25.5283 39.1818 24.3705 39.2703 23.4854C38.5076 23.3255 37.7945 22.9882 37.1903 22.5015C36.586 22.0148 36.108 21.3928 35.796 20.687C35.6861 20.3976 35.694 20.0774 35.8179 19.7935C35.9418 19.5097 36.1721 19.2842 36.4605 19.1643C36.749 19.0445 37.0732 19.0396 37.3653 19.1506C37.6574 19.2617 37.8946 19.48 38.0272 19.76C38.8914 22.0372 43.1839 21.481 43.1201 18.9939C43.1201 17.5037 42.2312 16.7482 40.4816 16.7482C39.2853 16.8491 38.0957 16.4905 37.1603 15.7471C36.2249 15.0036 35.6158 13.9325 35.4598 12.7567C35.3037 11.5809 35.6127 10.3909 36.3225 9.43446C37.0323 8.47799 38.0881 7.82869 39.2703 7.62169C39.1818 6.73318 39.3341 5.57882 40.4816 5.57882C41.6291 5.57882 41.7849 6.72968 41.6964 7.61819C43.3786 7.85256 46.7503 10.5601 44.5297 11.9838C44.383 12.0452 44.2255 12.0774 44.0662 12.0784C43.9069 12.0795 43.7489 12.0494 43.6015 11.9899C43.454 11.9304 43.3199 11.8427 43.2069 11.7317C43.0939 11.6208 43.0042 11.4889 42.943 11.3436C42.0824 9.0629 37.7864 9.62259 37.8501 12.1097C37.8501 13.6209 38.7108 14.3555 40.4745 14.3555C41.1256 14.2861 41.7842 14.3555 42.4058 14.5589C43.0274 14.7624 43.5976 15.0951 44.078 15.5348C44.5583 15.9744 44.9376 16.5107 45.1903 17.1074C45.4429 17.7041 45.5631 18.3474 45.5426 18.9939ZM32.7927 15.5518C32.7927 15.8691 32.6651 16.1734 32.4379 16.3978C32.2108 16.6221 31.9027 16.7482 31.5814 16.7482C31.2602 16.7482 30.9521 16.6221 30.725 16.3978C30.4978 16.1734 30.3702 15.8691 30.3702 15.5518C30.3702 15.2327 30.4986 14.9266 30.727 14.7009C30.9555 14.4753 31.2654 14.3485 31.5885 14.3485C31.9116 14.3485 32.2215 14.4753 32.45 14.7009C32.6785 14.9266 32.8068 15.2327 32.8068 15.5518H32.7927ZM49.3746 16.7482C49.0534 16.7482 48.7453 16.6221 48.5182 16.3978C48.291 16.1734 48.1634 15.8691 48.1634 15.5518C48.1634 15.2345 48.291 14.9302 48.5182 14.7059C48.7453 14.4815 49.0534 14.3555 49.3746 14.3555C49.6959 14.3555 50.004 14.4815 50.2311 14.7059C50.4583 14.9302 50.5859 15.2345 50.5859 15.5518C50.5859 15.8691 50.4583 16.1734 50.2311 16.3978C50.004 16.6221 49.6959 16.7482 49.3746 16.7482Z" fill="#161616"/>
</g>
</g>
</svg>

<svg xmlns="http://www.w3.org/2000/svg" width="81" height="79" fill="none">
    <path fill="#161616"
        d="M80.477 64.224a3.57 3.57 0 0 0-1.065-2.537 3.66 3.66 0 0 0-2.568-1.052c-.843.136-15.938-.35-16.143.381.644-.958.308-3.673.39-4.771a3.578 3.578 0 0 0-1.068-2.538 3.667 3.667 0 0 0-2.57-1.055c-.28.067-16.16-.196-15.753.224V47.07h8.475a10.988 10.988 0 0 0 7.708-3.16 10.718 10.718 0 0 0 3.197-7.614c0-.316-.127-.62-.354-.844a1.22 1.22 0 0 0-.854-.352h-9.697c-1.626 0-3.23.36-4.697 1.054a10.868 10.868 0 0 0-3.778 2.951V31.06c4.059-.31 7.84-2.16 10.547-5.162a15.437 15.437 0 0 0 3.976-10.943 15.467 15.467 0 0 0-4.816-10.608A15.85 15.85 0 0 0 40.489 0 15.85 15.85 0 0 0 29.57 4.346a15.467 15.467 0 0 0-4.817 10.608 15.438 15.438 0 0 0 3.976 10.943 15.819 15.819 0 0 0 10.547 5.162v16.049a10.866 10.866 0 0 0-3.786-2.965 11.001 11.001 0 0 0-4.713-1.054h-9.68c-.321 0-.63.126-.856.35a1.19 1.19 0 0 0-.355.846 10.718 10.718 0 0 0 3.198 7.612 10.988 10.988 0 0 0 7.707 3.159h8.5v5.803c.524-.423-15.555-.147-15.754-.22a3.66 3.66 0 0 0-2.568 1.052 3.57 3.57 0 0 0-1.065 2.537c.088 1.105-.259 3.802.386 4.77-.153-.744-15.357-.248-16.143-.38a3.678 3.678 0 0 0-1.394.27c-.442.179-.844.443-1.182.776a3.59 3.59 0 0 0-.792 1.164 3.554 3.554 0 0 0-.28 1.375v3.194a3.574 3.574 0 0 0 1.066 2.536 3.663 3.663 0 0 0 2.568 1.053h14.542a3.623 3.623 0 0 0 2.422-.934c.664.597 1.528.93 2.426.934h14.542a3.63 3.63 0 0 0 2.423-.934c.662.597 1.525.93 2.422.934h14.542a3.63 3.63 0 0 0 2.423-.934c.663.597 1.528.93 2.426.934h14.542a3.664 3.664 0 0 0 2.567-1.053 3.574 3.574 0 0 0 1.066-2.536c-.085-1.564.404-4.418-.945-5.597 1.339-1.154.874-4.012.945-5.576ZM50.175 37.495h8.408a8.368 8.368 0 0 1-2.847 5.133 8.563 8.563 0 0 1-5.55 2.049h-8.408a8.368 8.368 0 0 1 2.846-5.133 8.563 8.563 0 0 1 5.551-2.049Zm-19.383 15.16a8.562 8.562 0 0 1-5.55-2.052 8.367 8.367 0 0 1-2.844-5.136h8.394a8.562 8.562 0 0 1 5.55 2.049 8.367 8.367 0 0 1 2.847 5.133l-8.397.007ZM19.89 75.394c0 .318-.129.622-.357.847-.227.224-.536.35-.857.35H4.134c-1.853-.025-1.063-2.823-1.208-4.39 0-.317.127-.62.354-.845.226-.224.533-.35.854-.352h14.542c1.856.028 1.052 2.827 1.215 4.39Zm19.387 0c0 .317-.128.621-.355.845-.227.224-.535.35-.856.352H23.521c-1.856-.025-1.063-2.82-1.212-4.39.001-.317.13-.621.356-.845.227-.225.535-.35.856-.352h14.542c1.855.028 1.04 2.827 1.214 4.39Zm0-7.979c0 .317-.128.621-.355.845-.227.224-.535.35-.856.352H23.521c-1.856-.025-1.063-2.827-1.212-4.39.002-.317.13-.62.357-.843.227-.224.534-.35.855-.35h14.542c1.855.024 1.04 2.823 1.214 4.386Zm-12.12-51.862c0-3.492 1.405-6.841 3.905-9.31 2.5-2.47 5.891-3.857 9.427-3.857 3.535 0 6.926 1.387 9.426 3.857a13.085 13.085 0 0 1 3.904 9.31c0 3.492-1.404 6.84-3.904 9.31a13.415 13.415 0 0 1-9.426 3.857 13.415 13.415 0 0 1-9.427-3.857 13.085 13.085 0 0 1-3.904-9.31Zm31.521 59.845c0 .317-.129.622-.356.846-.228.224-.537.35-.858.35H42.91c-1.852-.024-1.045-2.823-1.211-4.39 0-.317.129-.62.356-.845.227-.224.534-.35.855-.351h14.542c1.856.024 1.048 2.826 1.215 4.39h.01Zm0-7.98c0 .318-.129.623-.356.847-.228.224-.537.35-.858.35H42.91c-1.852-.024-1.045-2.826-1.211-4.39 0-.317.129-.62.356-.845.227-.224.534-.35.855-.351h14.542c1.856.024 1.048 2.826 1.215 4.39h.01Zm0-7.978c0 .317-.129.621-.356.846-.228.224-.537.35-.858.35H42.91c-1.852-.024-1.045-2.826-1.211-4.39 0-.317.127-.622.355-.846.227-.224.535-.35.856-.35h14.542c1.856.024 1.048 2.822 1.215 4.39h.01Zm19.384 15.958c-.001.317-.129.62-.356.845-.227.224-.534.35-.855.351H62.3c-1.855-.024-1.062-2.82-1.21-4.39 0-.317.127-.621.354-.846.227-.224.535-.35.857-.35h14.542c1.852.024 1.048 2.83 1.218 4.39Zm0-7.98c-.001.318-.129.621-.356.846-.227.224-.534.35-.855.351H62.3c-1.855-.024-1.062-2.826-1.21-4.39 0-.317.127-.622.354-.846.227-.224.535-.35.857-.35h14.542c1.852.024 1.048 2.826 1.218 4.39Zm-32.52-48.423a4.682 4.682 0 0 1-1.127 2.91 4.786 4.786 0 0 1-2.719 1.581c.085.886-.067 2.036-1.214 2.04-1.148.003-1.3-1.154-1.212-2.04a4.927 4.927 0 0 1-2.08-.983 4.847 4.847 0 0 1-1.394-1.815c-.11-.29-.102-.61.022-.893.124-.284.354-.51.643-.63.288-.12.612-.124.904-.013.292.11.53.329.662.609.864 2.277 5.157 1.721 5.093-.766 0-1.49-.889-2.246-2.638-2.246a4.705 4.705 0 0 1-3.322-1 4.593 4.593 0 0 1-1.7-2.991 4.564 4.564 0 0 1 .862-3.323 4.672 4.672 0 0 1 2.948-1.812c-.088-.889.064-2.043 1.212-2.043 1.147 0 1.303 1.15 1.214 2.04 1.683.234 5.054 2.941 2.834 4.365a1.22 1.22 0 0 1-1.323-.252 1.192 1.192 0 0 1-.264-.388c-.86-2.281-5.157-1.721-5.093.766 0 1.51.86 2.245 2.624 2.245.652-.069 1.31 0 1.932.204a4.593 4.593 0 0 1 1.672.976c.48.44.86.976 1.112 1.572.253.597.373 1.24.353 1.887Zm-12.75-3.442c0 .317-.127.621-.354.846a1.219 1.219 0 0 1-1.713 0 1.189 1.189 0 0 1 .002-1.697 1.226 1.226 0 0 1 1.723 0c.228.226.357.532.357.85h-.014Zm16.583 1.196c-.322 0-.63-.126-.857-.35a1.189 1.189 0 0 1 0-1.692 1.219 1.219 0 0 1 1.713 0 1.189 1.189 0 0 1 0 1.692c-.227.224-.535.35-.856.35Z" />
</svg>
